src/maasserver/static/assets/images/icons/success-mono.svg

<?xml version="1.0" encoding="UTF-8" standalone="no"?>
<!-- Created with Inkscape (http://www.inkscape.org/) -->

<svg
   xmlns:dc="http://purl.org/dc/elements/1.1/"
   xmlns:cc="http://creativecommons.org/ns#"
   xmlns:rdf="http://www.w3.org/1999/02/22-rdf-syntax-ns#"
   xmlns:svg="http://www.w3.org/2000/svg"
   xmlns="http://www.w3.org/2000/svg"
   xmlns:sodipodi="http://sodipodi.sourceforge.net/DTD/sodipodi-0.dtd"
   xmlns:inkscape="http://www.inkscape.org/namespaces/inkscape"
   width="16.000017"
   height="16.000017"
   id="svg5918"
   version="1.1"
   inkscape:version="0.91+devel r"
   viewBox="0 0 16.000017 16.000017"
   sodipodi:docname="success_mono.svg">
  <defs
     id="defs5920" />
  <sodipodi:namedview
     id="base"
     pagecolor="#dedede"
     bordercolor="#666666"
     borderopacity="1.0"
     inkscape:pageopacity="0"
     inkscape:pageshadow="2"
     inkscape:zoom="24.286129"
     inkscape:cx="-23.070025"
     inkscape:cy="4.311703"
     inkscape:document-units="px"
     inkscape:current-layer="g6706"
     showgrid="true"
     fit-margin-top="0"
     fit-margin-left="0"
     fit-margin-right="0"
     fit-margin-bottom="0"
     inkscape:snap-bbox="true"
     inkscape:bbox-paths="true"
     inkscape:bbox-nodes="true"
     inkscape:snap-bbox-edge-midpoints="true"
     inkscape:snap-bbox-midpoints="true"
     inkscape:object-paths="true"
     inkscape:snap-intersection-paths="true"
     inkscape:object-nodes="true"
     inkscape:snap-smooth-nodes="true"
     inkscape:snap-midpoints="true"
     inkscape:snap-object-midpoints="true"
     inkscape:snap-center="true">
    <inkscape:grid
       type="xygrid"
       id="grid4137"
       originx="-0.00011142332px"
       originy="-8.9999724px" />
  </sodipodi:namedview>
  <metadata
     id="metadata5923">
    <rdf:RDF>
      <cc:Work
         rdf:about="">
        <dc:format>image/svg+xml</dc:format>
        <dc:type
           rdf:resource="http://purl.org/dc/dcmitype/StillImage" />
        <dc:title></dc:title>
      </cc:Work>
    </rdf:RDF>
  </metadata>
  <g
     inkscape:label="Layer 1"
     inkscape:groupmode="layer"
     id="layer1"
     transform="translate(-182.93849,-560.72008)">
    <g
       style="display:inline"
       transform="matrix(0.66666607,0,0,0.66666668,-633.06096,6.8119427)"
       id="g5687" />
    <g
       style="display:inline"
       id="g6706"
       transform="translate(-769.06151,404.35791)">
      <rect
         y="156.36218"
         x="952"
         height="16"
         width="16"
         id="rect6708"
         style="color:#000000;display:inline;overflow:visible;visibility:visible;opacity:1;fill:none;fill-opacity:1;fill-rule:nonzero;stroke:none;stroke-width:1.5;stroke-linecap:butt;stroke-linejoin:miter;stroke-miterlimit:4;stroke-dasharray:1.5, 1.5;stroke-dashoffset:0.60000002;stroke-opacity:1;marker:none;enable-background:accumulate" />
      <path
         style="color:#000000;display:inline;overflow:visible;visibility:visible;opacity:1;fill:#ffffff;fill-opacity:1;fill-rule:nonzero;stroke:none;stroke-width:1.5;stroke-linecap:butt;stroke-linejoin:miter;stroke-miterlimit:4;stroke-dasharray:none;stroke-dashoffset:0.80000001;stroke-opacity:1;marker:none;enable-background:accumulate"
         d="M 8 0 C 3.5906 0 0 3.5906 0 8 C 0 12.4094 3.5906 16 8 16 C 12.4094 16 16 12.4094 16 8 C 16 3.5906 12.4094 0 8 0 z M 11.800781 4.9238281 L 12.5 5.7128906 L 7 11.5 L 3.3847656 7.6972656 L 4.2246094 6.7480469 L 7 9.1289062 L 11.734375 4.9804688 L 11.800781 4.9238281 z "
         transform="translate(952,156.36217)"
         id="circle6710" />
    </g>
  </g>
</svg>

<svg xmlns="http://www.w3.org/2000/svg" width="16" height="16" viewBox="0 0 16.000017 16.000017"><g color="#000"><path style="marker:none" overflow="visible" fill="none" d="M0 0h16v16H0z"/><path style="marker:none" d="M8 0C3.59 0 0 3.59 0 8s3.59 8 8 8 8-3.59 8-8-3.59-8-8-8zm3.8 4.924l.7.789L7 11.5 3.385 7.697l.84-.949L7 9.128l4.734-4.148.067-.056z" overflow="visible" fill="#fff"/></g></svg>
